X: 1345
T: Meclisi Vaslında Giryân Olduğum
C: Ali Rıfat Çağatay
O: Turkey
F: http://compmusic.upf.edu/node/140
N: yegah--sarki--duyek--meclisi_vaslinda--ali_rifat_cagatay
N: makam= yegah
N: form= sarki
N: usul= duyek = 8/4
M: 8/4
L: 1/16
K: C _2/4B ^f  
Q: 1/4=168
%%MIDI tuningsystem comma53
z2 D2 ^3/4F2 d2 ^3/4c2 d2 ^3/4f2 a2  | \
w:   | 
=B2 d2 ^3/4f2 g2 =b2 g2 d'2 a2  | \
w:   | 
e2 =b2 ^3/4f2 a2 e2 g2 d2 b2  | 
w:   | 
a2 g2 ^3/4f2 e2 d2 ^3/4c=B A2 f2  | \
w:   | 
z2 ^3/4F2 A2 d2 ^3/4c2 d2 ^3/4f2 a2  | \
w:   | 
d2 ^3/4f2 e2 b2 a2 g2 f2 e2  | 
w:   | 
d2 ag ^3/4f2 e2 d2 ^3/4c2 d4  | .D2 .d2 .^3/4c2 .d2 .=B2 .d2 .A2 .d2  | \
w:   |   | 
.G2 .d2 .^3/4F2 .d2 .E2 .d2 .D2 .d2  | 
w:   | 
z2 A2 G2 .^3/4F2 .E2 A2 A2 z2  | z4 ^3/4F4 D4 z4  | \
w:   |   | 
z2 D2 ^3/4F2 d2 ^3/4c2 d2 ^3/4f2 a2  | \
w:   | 
=B2 d2 ^3/4f2 g2 =b2 g2 d'2 a2  | 
w:   | 
e2 =b2 ^3/4f2 a2 e2 g2 d2 b2  | a2 g2 ^3/4f2 e2 d2 ^3/4c=B A2 f2  | \
w:   |   | 
z2 ^3/4F2 A2 d2 ^3/4c2 d2 ^3/4f2 a2  | 
w:   | 
d2 ^3/4f2 e2 b2 a2 g2 f2 e2  | d2 ag ^3/4f2 e2 d2 ^3/4c2 d4  | \
w:   |   | 
.D2 .d2 .^3/4c2 .d2 .=B2 .d2 .A2 .d2  | 
w:   | 
.G2 .d2 .^3/4F2 .d2 .E2 .d2 .D2 .d2  | \
w:   | 
z2 A2 G2 .^3/4F2 .E2 A2 A2 z2  | z4 ^3/4F4 D4 z4  | \
w:   |   | 
z2 d4 d2 d4 A4  | 
w:  Mec lis_ i  vas  | 
z2 ^3/4f2 e2 f2 d4 a4  | z2 a=b a2 g2 ^3/4f4 e2 f2  | \
w:  lın *  da  gir yân   |  ol *  *  du ğum  *  ma  | 
g2 ag ^3/4f2 e2 d4 A=B ^3/4cd  | 
w:  *  zur  *  *  *  tut   SAZ  | 
D2 d2 z2 d2 A=B ^3/4cd Bc dg  | D^3/4F Ad ^3/4cd a2 ad' ad' ^3/4f4  | 
w:   |   | 
=B^3/4f ef d4 Ge de A4  | ag ^3/4fg fg ef d2 A2 d2 z2  | 
w:   |   | 
z2 a2 g2 a2 g2 ^3/4f2 e2 f2  | g2 a2 {b}a2 g2 ^3/4f3e d4  | \
w:  Bir  *  ta bi *  at  |  *  tır  *  *  ki  kal *  mış   | 
z2 e2 d2 e2 ^3/4f2 g2 a4  | 
w:  gam  *  za ma *  nın  | 
z2 g2 ^3/4f2 e2 d4 a4  | z2 a2 g2 a2 g2 ^3/4f2 e2 f2  | \
w:  dan  *  ba na   SAZ  |  Bir  *  ta bi *  at  | 
g2 a2 {b}a2 g2 ^3/4f3e d4  | 
w:  *  tır  *  *  ki  kal *  mış   | 
z2 e2 d2 e2 ^3/4f2 g2 a4  | z2 g2 ^3/4f2 e2 d4 z4  | \
w:  gam  *  za ma *  nın  |  dan  *  ba na    | 
D^3/4F d2 ^3/4c2 d2 =B2 d2 A2 d2  | 
w:  SAZ  | 
E^3/4F Ad ^3/4f2 d2 ^3/4c2 d2 a2 f2  | \
w:   | 
z2 d'2 c'2 =b2 a2 g2 ^3/4f2 e2  | \
w:   | 
^3/4f2 g2 a2 g2 f2 ^3/4e2 {g}f4  | 
w:   | 
z2 ^3/4f4 f2 f4 f2 g2  | a2 a=b a2 g2 ^3/4f3e d2 e2  | \
w:  Gül şen  â râ   |  *  bül *  *  bül_ i  *  vah  | 
d2 a2 g2 a2 g2 ^3/4f2 e2 f2  | 
w:  *  det *  şi nâ *  sım   | 
g2 a2 {b}a2 g2 ^3/4f3e f4  | z2 ^3/4f4 f2 f4 f2 g2  | \
w:  kim  *  *  *  ge lir    |  Gül şen  â râ   | 
a2 a=b a2 g2 ^3/4f3e d2 e2  | 
w:  *  bül *  *  bül_ i  *  vah  | 
d2 a2 g2 a2 g2 ^3/4f2 e2 f2  | g2 a2 {b}a2 g2 ^3/4f3e f4  | \
w:  *  det *  şi nâ *  sım   |  kim  *  *  *  ge lir    | 
z2 ^3/4f2 f2 d2 ^3/4cd a6  | 
w:  SAZ  | 
a3g ^3/4f2 =b2 ag f6  | z2 a2 a2 ^3/4f2 f3e d2 f2  | \
w:   |   | 
e3d ^3/4c2 e2 d2 =B2 B2 A2  | 
w:   | 
z2 d2 ^3/4c2 d2 =B3A d4  | z2 c2 B2 A2 G2 A2 B2 c2  | \
w:  Şevk_ *  i  di *  ğer   |  â *  le min  *  devr_  | 
d2 =B4 A2 A2 G2 G2 ^3/4F2  | 
w:  *  i  ha zâ *  nın  | 
E2 A2 ^3/4F2 E2 D4 d4  | z2 d2 ^3/4c2 d2 =B3A d4  | \
w:  *  dan  *  ba na   SAZ  |  Şevk_ *  i  di *  ğer   | 
z2 c2 B2 A2 G2 A2 B2 c2  | 
w:  â *  le min  *  devr_  | 
d2 =B4 A2 A2 G2 G2 ^3/4F2  | E2 A2 ^3/4F2 E2 D4 z4  | |


